X:1
T:Veni Domine
T:Felix Mendelssohn op. 39 no. 1
T:Veni Domine
T:Copyright © 2015 by CPDL.  This edition can be fully distributed, duplicated, performed, and recorded. 
T:für Frauenchor
T:Copyright © 2015 by CPDL.  This edition can be fully distributed, duplicated, performed, and recorded. 
T:Copyright © 2015 by CPDL.  This edition can be fully distributed, duplicated, performed, and recorded. 
T:Copyright © 2015 by CPDL.  This edition can be fully distributed, duplicated, performed, and recorded. 
T:Copyright © 2015 by CPDL.  This edition can be fully distributed, duplicated, performed, and recorded. 
T:Copyright © 2015 by CPDL.  This edition can be fully distributed, duplicated, performed, and recorded. 
T:Copyright © 2015 by CPDL.  This edition can be fully distributed, duplicated, performed, and recorded. 
T:Copyright © 2015 by CPDL.  This edition can be fully distributed, duplicated, performed, and recorded. 
T:Copyright © 2015 by CPDL.  This edition can be fully distributed, duplicated, performed, and recorded. 
T:Copyright © 2015 by CPDL.  This edition can be fully distributed, duplicated, performed, and recorded. 
T:Copyright © 2015 by CPDL.  This edition can be fully distributed, duplicated, performed, and recorded. 
T:Copyright © 2015 by CPDL.  This edition can be fully distributed, duplicated, performed, and recorded. 
C:Felix Mendelssohn op. 39 no. 1
Z:Copyright © 2015 by CPDL.  This edition can be fully distributed, duplicated, performed, and recorded.
Z:
%%score [ 1 2 3 ] { ( 4 6 7 ) | 5 }
L:1/8
Q:1/4=50
M:2/2
K:Bb
V:1 treble nm="Soprano" snm="S."
V:2 treble nm="Mezzo-soprano" snm="M-S."
V:3 treble nm="Alto" snm="A."
V:4 treble nm="Organ" snm="Org."
V:6 treble 
V:7 treble 
V:5 bass 
V:1
!f! B8 | A8 | G8- | G4 G4 | !fermata!F8 | G8- | G8 | !fermata!A8 ||[M:6/8][Q:1/4=120] z6 | %9
w: Ve-|ni|Do-|* mi-|ne!|Ve-||ni!||
!f! (G2 A) (B2 d) | d3- d2 c | B3 z z d | dcd e3 | d2 z z z e | dcd e3 | d2 z A3 | (B3 =B3) | %17
w: Ve- * ni _|Do- * mi-|ne et|no- li tar- da-|re, et|no- li tar- da-|re, et|no- *|
 c3 ^c3 | (d3!f! g3-) | (g3 ^f2 =e) | !fermata!d3 z3 | z6 | z6 |!f! d3 d3 | e6 | e3 z3 | z6 | z6 | %28
w: li- ta-|da- *||re!|||ple- bi|tu-|ae,|||
!f! e3 e3 | f6 | f3 z3 | z3 G3 | c2 B A2 G | A3 d3 | g2 f =e2 d | ^c3 A2 A | d6- | (d2 ^c df)=e | %38
w: ple- bi|tu-|ae,|et|re- vo- ca dis-|per- sos,|re- vo- ca dis-|per- sos in|ter-|* * * * ram|
 (d3 ^c3) | d3 z3 |!f! (D2 =E) (F2 A) | A3- A2 G | F3 z z A | AGA B3 | A3 z z A | AGA B3 | %46
w: tu- *|am.|Ve- * ni _|Do- * mi-|ne et|no- li tar- da-|re, et|no- li tar- da-|
 A3 z z A | d6- | (d2 ^c) d2 =e | ^c6 | !fermata!d6 ||[M:3/4][Q:1/4=80] z2 z d!<(! =B!<)!c | %52
w: re, et|no-|* * li tar-|da-|re!|Ex- ci- ta|
 d>c d(d/e/) fe/d/ | e2 c(c =AB | c>)d cc ed/c/ | (c>d) d z (Bc) |!>(! d2!>)! d z!<(! (Bc)!<)! | %57
w: Do- mi- ne po- * ten- ti- am|tu- am, Do- * *|* mi- ne po- ten- ti- am|tu- * am et _|ve- ni, et _|
!>(! d2!>)! d2 z d | g6- | (g2 fe) (dc) | (BA) (G2 B>)A | G2 z d =Bc | d>e d(d/e/) fe/d/ | %63
w: ve- ni, ut|sal-|* * * vos _|nos _ fa- * ci-|as. Ex- ci- ta|Do- mi- ne po- * ten- ti- am|
 e2 c(c AB | c>)d c(c/d/) ed/c/ | (c>d) d z z2 | z6 | z2 z2 d2 | g6- | (g2 fe) (dc) | %70
w: tu- am, Do- * *|* mi- ne po- * ten- ti- am|tu- * am,||ut|sal-|* * * vos _|
 (BA) (G2 B>)A | G2 z2 z2 | d6 | e2 Ge (dc) | (BA) G2 A>G ||[M:6/8][Q:3/8=72] G2 z2 z2 | %76
w: nos _ fa- * ci-|as,|ut|sal- vos, ut sal- *|vos _ nos fa- ci-|as.|
!f! (G2 A) (B2 d) | d3- d2 c | B2 z z2 B | B6 | c3- c2 c | d4 cd | e4 de | (g2 d) c2 B | (B3 A3) | %85
w: Ve- * ni _|Do- * mi-|ne et|no-|li, _ et|no- li tar-|da- re, et|no- * li tar-|da- *|
 G3 z3 | z6 | z6 | z6 | z3 z2!f! G | g6 | e3 c3 | (e6 |"^dim." d3 c3) | !fermata!d6 |] %95
w: re,||||et|no-|li tar-|da-||re!|
V:2
!f! B8 | A8 | G8- | G4 G4 | !fermata!F8 | G8- | G8 | !fermata!A8 ||[M:6/8] z6 |!f! (D2 ^F) (G2 A) | %10
w: Ve-|ni|Do-|* mi-|ne!|Ve-||ni!||Ve- * ni _|
 B3- B2 A | G3 z z A | B3- BcB | A2 D z z A | B3- BcB | A2 D A3 | (A2 G) G3- | G3 (A2 B) | %18
w: Do- * mi-|ne et|no- * li tar-|da- re, et|no- * li tar-|da- re, et|no- * li,|_ no- *|
 A3!f! B3 | d3- (d2 A) | !fermata!A3 D3 | d3 c2 B | A2 G G2 z |!f! =B3 B3 | G6 | c3 z3 | z6 | z6 | %28
w: li tar-|ta- * *|re! Re-|la- xa fa-|ci- no- ra|ple- bi|tu-|ae,|||
!f! c3 c3 | d6 | d3 z3 | z6 | z3 A3 | d2 c B2 A | (d2 c B3) | A3- A2 A | (A3 G2 A | B3-) B2 B | %38
w: ple- bi|tu-|ae,||et|re- vo- ca dis-|per- * *|sos _ in|ter- * *|* * ram|
 A3- (A2 G) | F3 z3 |!f! (D2 =E) (F2 A) | A3- A2 G | F3 z z A | A3- AGF | =E3 A2 A | A3- AGF | %46
w: tu- * *|am.|Ve- * ni _|Do- * mi-|ne et|no- * li tar-|da- re, et|no- * li tar-|
 =E3 A2 A | AGA B3- | B3 B2 B | A6 | !fermata!A6 ||[M:3/4] z6 | z6 | z6 | z6 | z4 B2 | %56
w: da- re, et|no- li tar- da-|* re, tar-|da-|re!|||||Et|
!>(! (AB)!>)! A2 z2 | (AB) A2 z2 | z6 | z6 | z6 | z2 z D GA | =B>c B(B/c/) dc/B/ | c2 G2 z B | %64
w: ve- * ni,|ve- * ni!||||Ex- ci- ta|Do- mi- ne po- * ten- ti- am|tu- am, po-|
 B4 A(B/A/) | (A>B) B2!<(! (Bc)!<)! |!>(! d2!>)! d z!<(! (Bc)!<)! |!>(! d2!>)! d2 z A | %68
w: ten- ti- am _|tu- * am et _|ve- ni, et _|ve- ni ut|
 (G d2 c2) =B | (=Bc) z2 z2 | z2 D2 ^F2 | GB (d2 c2) | BG (B2 _A>)G | G2 z2 z2 | z2 D2 ^F>G || %75
w: sal- * * vos|nos _|fa- ci-|as ut sal- *|vos nos fa- * ci-|as,|nos fa- ci-|
[M:6/8] G2 z2 z2 |!f! (G2 A) (B2 d) | d3- d2 c | B2 z z2 G | G3- GFG | A3- AGA | (B2 _A) G2 F | %82
w: as.|Ve- * ni _|Do- * mi-|ne et|no- * li tar-|da- * re, et|no- * li tar-|
 (E2 G) c2 e | d3 ^F2 G | (G3 ^F3) | G3 z3 | z6 | z3 z2 G | GFG _A3 | G3 z2!f! G | e6 | c3 G3 | %92
w: da- * re, et|no- li tar-|da- *|re,||et|no- li tar- da-|re, et|no-|li tar-|
 (c6 |"^dim." =B3 A3) | !fermata!=B6 |] %95
w: da-||re!|
V:3
!f! B8 | A8 | G8- | G4 G4 | !fermata!F8 | G8- | G8 | !fermata!A8 ||[M:6/8] z6 | %9
w: Ve-|ni|Do-|* mi-|ne!|Ve-||ni!||
!f! (B,2 C) (D2 ^F) | G3 D3 | D3 z z ^F | G3- GAG | ^F2 D z z F | G3- GAG | ^F2 D z2 z | z2 z =F3 | %17
w: Ve- * ni _|Do- mi-|ne et|no- * li tar-|da- re, et|no- * li tar-|da- re,|et|
 (E3 =E3) | A3!f! G3 | (B3 A2 G) | !fermata!^F3 z3 | z6 | z6 |!f! G3 G3 | C6 | C2 z C3 | G3 F2 E | %27
w: no- *|li tar-|da- * *|re!|||ple- bi|tu-|ae, re-|la- xa fa-|
 D2 C C2 z |!f! c3 G3 | B6 | B3 F3 | G2 F E2 D | (C6 | ^F3) G2 A | B2 A G2 F | =E3 A2 G | %36
w: ci- no- ra|ple- bi|tu-|ae, et|re- vo- ca dis-|per-|* sos, et|re- vo- ca dis-|per- sos in|
 (F3 =E2 F) | G3- (GA)G | (F3 =E3) | D3 z3 |!f! (D2 =E) (F2 A) | A3- A2 G | F3 z z A | F3- F=ED | %44
w: ter- * *|* * * ram|tu- *|am.|Ve- * ni _|Do- * mi-|ne et|no- * li tar-|
 ^C3 A2 G | F3- F=ED | ^C3 A2 G | F3- F=EF | G3 F2 =E | (A3 G3) | !fermata!^F6 ||[M:3/4] z6 | z6 | %53
w: da- re, et|no- * li tar-|da- re, et|no- * li tar-|da- re, tar-|da- *|re!|||
 z6 | z6 | z4 G2 |!>(! (^FG)!>)! F2 z2 | (^FG) F2 z2 | z6 | z6 | z6 | z2 z D DD | G>G GG _AG/G/ | %63
w: ||Et|ve- * ni,|ve- * ni!||||Ex- ci- ta|Do- mi- ne po- ten- ti- am|
 G2 E2 z B | (G2 E2) CF | F2 F2!<(! G2!<)! |!>(! d2!>)! A z!<(! G2!<)! |!>(! d2!>)! A2 z ^F | %68
w: tu- am, po-|ten- * ti- am|tu- am et|ve- ni, et|ve- ni ut|
 (G=F E2) D2 | E2 z2 z2 | z2 B,2 D2 | DG (B2 A2) | GD (G2 F>)E | E2 z2 z2 | z2 B,2 C>B, || %75
w: sal- * * vos|nos|fa- ci-|as ut sal- *|vos nos fa- * ci-|as,|nos fa- ci-|
[M:6/8] B,2 z2 z2 |!f! (G2 A) (B2 d) | d3- d2 c | B2 z z2 D | DCD E3- | (EDE F3-) | FEF G3- | %82
w: as.|Ve- * ni _|Do- * mi-|ne et|no- li tar- da-||* re, tar- dar-|
 (G^FG ABc | B3) A2 G | D6 | D3 z2 G | GFG _A3 | G3 z3 | z6 | z3 z2!f! G | c6 | G3 E3 | G6- | %93
w: |* re, tar-|dar-|re, et|no- li tar- da-|re,||et|no-|li tar-|da-|
"^dim." G6 | !fermata!G6 |] %95
w: |re!|
V:4
!f! [B,DGB]8 | [DFA]8 | [G,B,E-G-]8 | [A,CEG]8 | !fermata![DF]8 | [G,-B,G-]8 | [G,CG]8 | %7
 !fermata![^F,A,D]8 ||[M:6/8]!mf! ([B,DG]2 [C^FA] [DGB]2 [FAd]) | d3- d2 z | %10
 ([B,DG]2 [CA] [DGB]2 [^FAd]) | d3- d2 d | dcd e3 | ([^FA][A,F][B,G] [CA][DB][CA]) | [B,G]6 | %15
 ([^FA][A,F][B,G] [CA][DB][CA]) | [B,A]DG =B3 | [EGc]3 [=E^c]3 | d3- [dg]3- | [Bdg]2 z z3 | %20
 !fermata![^FAd]3 z3 | z6 | z6 | [G=Bd]3 [GBd]3 | [EGce]6 | [EGc]3 z3 | z6 | z6 | [EGce]3 [EGce]3 | %29
 [Bdf]6 | [FBd]3 [DF]3 | [B,G]2 F G3 | [Cc]2 [GB] [^FA]2 G | d3 d3 | [Bdg]2 [Acf] [GB=e]2 [Fd] | %35
 [=EA^c]3 A3 | d6 | [GB]3- [GB]2 z | z6 | ([F,A,D]2 [G,^C=E] [A,DF]2 [CEA]) | %40
 [DFA]3- [DFA]2 [G,^C=E] | ([F,A,D]2 [G,^C=E] [A,DF]2 [CEA]) | A3- A2 [=EG] | %43
 [DF]3- [DF][=EG][DF] | [^C=E]2 [DF] [EG][DF][CE] | [DF]2 [FA]- [FA][=EG][DF] | %46
 [^C=E]2 [DF] [EG][FA][EG] | FGA B3- | [GB]6 | [=EGA^c]6 | !fermata![D^FAd]6 || %51
[M:3/4]!pp! z2 z d [G=B][Ac] | ([=Bd]>[Ac] [Bd])([Bd]/[ce]/ [df][ce]/[Bd]/) | %53
 [G-c-e]2 [EGc] z z B- | c3 (c/d/ [Ae][Bd]/[Ac]/) | [F-Ac]2 [FBd] z [GB]2 | %56
 ([^FA][GB] [FA]2) [GB]2 | ([^FA][GB] [FA]2) z [FA] | G d2 c2 =B- | (Bc) z2 z2 | %60
 z2 [B,D-]2 [CD^F]2 | [B,DG]2 z ([Dd] [G=B][Ac]) | ([=Bd]>[Ac] [Bd])([Bd]/[ce]/ [df][ce]/[Bd]/) | %63
 [Gce]2 [EGc]2 z [FB] | (c>d c)(c/d/ ed/c/) | ([Ac]2 [Bd]) z [GB]2 | ([^FA][GB] [FA]2) [GB]2 | %67
 ([^FA][GB] [FA]2) z [FA] | G d2 c2 =B- | (Bc) z2 z2 | z2 ([B,DG]2 [D^F]2) | %71
 ([DG][GB] [Bd]2 [Ac]2) | ([GB][DG] [GB]2 [F_A]2) | [EG]4 z2 | z6 || %75
[M:6/8]!mf! ([B,DG]2 [C^FA] [DGB]2 [FAd]) | [GBd]3- [GBd]2 [C^FA] | ([B,DG]2 [C^A] [DGB]2 [FAd]) | %78
 [GBd]2 [Ac] [GB]3 | G3- (GFG | A3-) (AGA | B2) _A (dcd | [EGe])^FG A[Bd][ce] | [DGB]3 z2 z | %84
 z3 [CD^F]3 | (G[=B,D][CE] [D=F][EG][DF]) | GFG _A3 | [=B,DG][D=B][Ec] [Fd][Ge][Fd] | %88
 [Ec]3- [Ec][Fd][Ec] | ([DG=B]2 [Ec] [GBd][ce][df]) | [Gce]6- | [Gce]2 z z3 |!pp! G6 | G,6 | z6 |] %95
V:5
 [G,,,G,,]8 | [D,,D,]8 | [E,,E,]8- | [E,,E,]8 | !fermata![B,,F,]8 | [E,,E,]8- | [E,,E,]8 | %7
 !fermata![D,,D,]8 ||[M:6/8] [G,,,G,,]6- | [G,,,G,,]6- | [G,,,G,,]6- | [G,,,G,,]2 z D,,3 | G,,6 | %13
 D,,6 | G,,6 | D,6- | D,6 | C,2 B,, A,,2 G,, | ^F,,3 G,,3 | D,,6- | !fermata!D,,3 z3 | z6 | z6 | %23
 [G,,G,]3 [G,,G,]3 | [C,,C,]6- | [C,,C,]3 z3 | z6 | z6 | [C,,C,]3 [C,,C,]3 | [B,,,B,,]6- | %30
 [B,,,B,,]6 | [E,,E,]6- | [E,,E,]6 | [D,,D,]6 | z3 G,,3 | A,2 G, F,2 =E, | D,2 C, B,,2 A,, | G,,6 | %38
 A,,6 | [D,,D,]6- | [D,,D,]6- | [D,,D,]6- | [D,,D,]6- | [D,,D,]3 G,,3 | A,,6 | D,3 G,,3 | A,,6 | %47
 B,,6 | G,,6 | A,,6 | !fermata!D,,6 ||[M:3/4] G,,2 G,4 | F,3 E, D,G, | C,4 C,D, | E,2 F,2 F,,2 | %55
 B,,4 G,2 | D,4 G,,2 | D,4 C,2 | =B,,2 C,2 G,,2 | C,,2 z2 z2 | z2 D,4 | G,,D, G,4 | F,3 E, D,G, | %63
 C,4 C,D, | E,2 F,2 F,,2 | B,,4 G,2 | D,4 G,2 | D,4 C,2 | =B,,2 C,2 G,,2 | C,,2 z2 z2 | z2 D,3 C, | %71
 B,,2 z2 ^F,2 | G,2 z2 B,,2 | E,4 z2 | z2 D,2 D,,2 ||[M:6/8] [G,,,G,,]6- | [G,,,G,,]6- | %77
 [G,,,G,,]6- | [G,,,G,,]2 z [D,,D,]3 | [G,,G,]6 | [F,,F,]6 | B,,3 =B,,3 | C,6 | D,3- D,2 z | %84
 [D,,D,]6 | [G,,,G,,]6- | [G,,,G,,]6- | [G,,,G,,]6- | [G,,,G,,]6- | [G,,,G,,]6 | [C,,C,]6- | %91
 [C,,C,]6 | [G,,,G,,]6- | [G,,,G,,]6- | !fermata![G,,,G,,]6 |] %95
V:6
 x8 | x8 | x8 | x8 | x8 | x8 | x8 | x8 ||[M:6/8] x6 | ([GB]2 A G2) x | x6 | %11
 ([GB]2 [Ac] [GB]2) [Ac] | [GB]3- ([GB][Ac][GB]) | x3 ^F3 | x6 | x3 ^F3 | x3 G2 F | x3 A2 B | %18
 A2 c B2 G | x6 | x6 | x6 | x6 | x6 | x6 | x6 | x6 | x6 | x6 | x6 | x6 | x3 E2 D | x6 | %33
 [^FA]2 c B2 [Ac] | x6 | x3 A2 G | [FA]3 [=EG]2 [FA] | x6 | x6 | x6 | x6 | x6 | [DF]2 =E [DF]2 x | %43
 x6 | x6 | x6 | x6 | D3- D=EF | x6 | x6 | x6 ||[M:3/4] x6 | G4 _AG | x6 | [GB-]2 [CB]2 F2 | x6 | %56
 D4 D2 | D4 x2 | G=F E2 [DF]2 | E2 x4 | x6 | x6 | G4 _AG | x6 | [GB-]2 B2 AB/A/ | F2- F x3 | %66
 D4 D2 | D4 x2 | G=F E2 [DF]2 | E2 x4 | x6 | x6 | x6 | x6 | x6 ||[M:6/8] x6 | x6 | x6 | x3 z z D | %79
 DCD E3 | EDE F3 | FEF G3 | x6 | x6 | x6 | x6 | [CE]3- [CE][DF][CE] | x3 =B3 | GFG _A3 | x6 | x6 | %91
 x6 | x6 | x6 | x6 |] %95
V:7
 x8 | x8 | x8 | x8 | x8 | x8 | x8 | x8 ||[M:6/8] x6 | x6 | x6 | x6 | x6 | x6 | x6 | x6 | x6 | x6 | %18
 x6 | x6 | x6 | x6 | x6 | x6 | x6 | x6 | x6 | x6 | x6 | x6 | x6 | x6 | x6 | x6 | x6 | x6 | x6 | %37
 x6 | x6 | x6 | x6 | x6 | x6 | x6 | x6 | x6 | x6 | x6 | x6 | x6 | x6 ||[M:3/4] x6 | x6 | x6 | x6 | %55
 x6 | x6 | x6 | x6 | x6 | x6 | x6 | x6 | x6 | x6 | x6 | x6 | x6 | x6 | x6 | x6 | x6 | x6 | x6 | %74
 x6 ||[M:6/8] x6 | x6 | x6 | x6 | B6 | c6 | d3- x3 | x6 | x6 | x6 | x6 | x6 | x6 | x6 | x6 | x6 | %91
 x6 | x6 | x6 | x6 |] %95

